!!!SOCIAL_FUNCTION:	memorial ceremony songs
!!!PDT:	1932
!!!OTL: No_32_The_Superman_Dies.krn
!!!REG: Southwest
!!!LANG: Non-Tone
!!!LING_GROUP: Yuman-Cochimi
**kern	**kern
*staff2	*staff1
=1-	=1-
=	=
*clefF4	*clefF4
*k[b-]	*k[b-]
*M2/4	*M2/4
8GG/L	4A\
8GG/J	.
8GG/L	8A\L
8GG/J	8G\J
=2	=2
8GG/L	4A\
8GG/J	.
8r	8r
8GG/	8A\
=3	=3
8GG/L	8A\L
8GG/J	8A\J
8GG/L	8A\L
8GG/J	8G\J
=4	=4
8GG/L	4A\
8GG/J	.
8GG/L	8F\L
8GG/J	8A\J
=5	=5
8GG/L	4A\
8GG/J	.
8GG/L	8G\L
8GG/J	8G\J
=6	=6
8GG/L	4F\
8GG/J	.
8r	8r
8GG/	8D\
=7	=7
8GG/L	8D\L
8GG/J	8D\J
8GG/L	8D\L
8GG/J	8D\J
=8	=8
8GG/L	4F\
8GG/J	.
8r	8r
8GG/	8A\
=9	=9
8GG/L	4A\
8GG/J	.
8GG/L	8G\L
8GG/J	8G\J
=10	=10
8GG/L	4F\
8GG/J	.
8r	8r
8GG/	8D\
=11	=11
8GG/L	8D\L
8GG/J	8D\J
8GG/L	8F\L
8GG/J	8F\J
=12	=12
8GG/L	4G\
8GG/J	.
4r	4r
==:|!	==:|!
*-	*-
